X: 2
T: Lady Harriet Hope
S: Kerr's Merry Melodies Bk.1 c1870s
N: Nigel Gatherer
M: 4/4
L: 1/8
K: F
A | FAcf dcBA | f2 (3agf gGGA | FAcf dcBA | BGcA F/F/F F :|
c | fcfa (3fga gf | ecgc acgc | fcfg (3fga gf | cfeg f/f/f fc |
fcfg (3fga gf | gfga baga | fdcB Acfd | cABG F/F/F F |]
